rospo-icon-theme-classic-common/64x64/apps/rto-proxy.svg

<svg height="64" viewBox="0 0 64 64" width="64" xmlns="http://www.w3.org/2000/svg"><path d="m32 5a28 28 0 0 0 -28 28 28 28 0 0 0 28 28 28 28 0 0 0 28-28 28 28 0 0 0 -28-28z" opacity=".2"/><path d="m32 4a28 28 0 0 0 -28 28 28 28 0 0 0 28 28 28 28 0 0 0 28-28 28 28 0 0 0 -28-28z" fill="#46c552"/><path d="m26.751634 46.261158c2.648648-1.23109 5.00863-2.236086 5.244404-2.233328.235774.0026 2.576528 1.010012 5.20167 2.23834 2.625142 1.228334 5.345291 2.73383 5.555289 2.73383.290496 0 .345988-.23618.232006-.987504-.493895-3.671626-1.510474-6.528011-1.985003-10.334688l2.896538-2.7779c4.100923-3.932955 5.24151-5.651302 5.092372-5.798936-.07362-.07288-2.57378-.59974-5.555874-1.170766-4.31181-.825646-5.512462-1.147354-5.86387-1.571196-.243036-.293136-1.37098-2.221482-2.506542-4.285218-2.416598-4.391858-3.027818-5.319895-3.30848-5.023371-.11336.119792-1.361538 2.291524-2.773702 4.826087-1.412166 2.53456-2.65544 4.695284-2.762844 4.8016-.1074.10632-2.405804.611918-5.107558 1.12355-6.306588 1.194282-6.109356 1.146572-6.109356 1.477872 0 .15558 1.739805 2.115836 3.866233 4.356088 3.614569 3.808048 4.257407 4.127844 4.124083 4.912932-.26068 1.535056-2.004934 9.256892-2.005458 9.858948-.000264.325876.1234.592502.274916.592502.15148 0 2.842526-1.507754 5.491176-2.738842z" opacity=".2"/><path d="m26.751634 45.261158c2.648648-1.23109 5.00863-2.236086 5.244404-2.233328.235774.0026 2.576528 1.010012 5.20167 2.23834 2.625142 1.228334 5.345291 2.73383 5.555289 2.73383.290496 0 .345988-.23618.232006-.987504-.493895-3.671626-1.510474-6.528011-1.985003-10.334688l2.896538-2.7779c4.100923-3.932955 5.24151-5.651302 5.092372-5.798936-.07362-.07288-2.57378-.59974-5.555874-1.170766-4.31181-.825646-5.512462-1.147354-5.86387-1.571196-.243036-.293136-1.37098-2.221482-2.506542-4.285218-2.416598-4.391858-3.027818-5.319895-3.30848-5.023371-.11336.119792-1.361538 2.291524-2.773702 4.826087-1.412166 2.53456-2.65544 4.695284-2.762844 4.8016-.1074.10632-2.405804.611918-5.107558 1.12355-6.306588 1.194282-6.109356 1.146572-6.109356 1.477872 0 .15558 1.739805 2.115836 3.866233 4.356088 3.614569 3.808048 4.257407 4.127844 4.124083 4.912932-.26068 1.535056-2.004934 9.256892-2.005458 9.858948-.000264.325876.1234.592502.274916.592502.15148 0 2.842526-1.507754 5.491176-2.738842z" fill="#fff"/><path d="m32 4a28 28 0 0 0 -28 28 28 28 0 0 0  .0214844.40625 28 28 0 0 1 27.9785156-27.40625 28 28 0 0 1 27.978516 27.578125 28 28 0 0 0  .021484-.578125 28 28 0 0 0 -28-28z" fill="#fff" opacity=".2"/></svg>

<svg xmlns="http://www.w3.org/2000/svg" width="64" height="64" version="1.1" viewBox="0 0 64 64">
 <path style="opacity:0.2" d="M 32,5 A 28,28 0 0 0 4,33 28,28 0 0 0 32,61 28,28 0 0 0 60,33 28,28 0 0 0 32,5 Z"/>
 <path style="fill:#46c552" d="M 32,4 A 28,28 0 0 0 4,32 28,28 0 0 0 32,60 28,28 0 0 0 60,32 28,28 0 0 0 32,4 Z"/>
 <path style="opacity:0.2" d="m 26.751634,46.261158 c 2.648648,-1.23109 5.00863,-2.236086 5.244404,-2.233328 0.235774,0.0026 2.576528,1.010012 5.20167,2.23834 C 39.82285,47.494504 42.542999,49 42.752997,49 43.043493,49 43.098985,48.76382 42.985003,48.012496 42.491108,44.34087 41.474529,41.484485 41,37.677808 l 2.896538,-2.7779 c 4.100923,-3.932955 5.24151,-5.651302 5.092372,-5.798936 -0.07362,-0.07288 -2.57378,-0.59974 -5.555874,-1.170766 -4.31181,-0.825646 -5.512462,-1.147354 -5.86387,-1.571196 -0.243036,-0.293136 -1.37098,-2.221482 -2.506542,-4.285218 -2.416598,-4.391858 -3.027818,-5.319895 -3.30848,-5.023371 -0.11336,0.119792 -1.361538,2.291524 -2.773702,4.826087 -1.412166,2.53456 -2.65544,4.695284 -2.762844,4.8016 -0.1074,0.10632 -2.405804,0.611918 -5.107558,1.12355 -6.306588,1.194282 -6.109356,1.146572 -6.109356,1.477872 0,0.15558 1.739805,2.115836 3.866233,4.356088 3.614569,3.808048 4.257407,4.127844 4.124083,4.912932 -0.26068,1.535056 -2.004934,9.256892 -2.005458,9.858948 C 20.985278,48.733374 21.108942,49 21.260458,49 c 0.15148,0 2.842526,-1.507754 5.491176,-2.738842 z"/>
 <path style="fill:#ffffff" d="m 26.751634,45.261158 c 2.648648,-1.23109 5.00863,-2.236086 5.244404,-2.233328 0.235774,0.0026 2.576528,1.010012 5.20167,2.23834 C 39.82285,46.494504 42.542999,48 42.752997,48 43.043493,48 43.098985,47.76382 42.985003,47.012496 42.491108,43.34087 41.474529,40.484485 41,36.677808 l 2.896538,-2.7779 c 4.100923,-3.932955 5.24151,-5.651302 5.092372,-5.798936 -0.07362,-0.07288 -2.57378,-0.59974 -5.555874,-1.170766 -4.31181,-0.825646 -5.512462,-1.147354 -5.86387,-1.571196 -0.243036,-0.293136 -1.37098,-2.221482 -2.506542,-4.285218 -2.416598,-4.391858 -3.027818,-5.319895 -3.30848,-5.023371 -0.11336,0.119792 -1.361538,2.291524 -2.773702,4.826087 -1.412166,2.53456 -2.65544,4.695284 -2.762844,4.8016 -0.1074,0.10632 -2.405804,0.611918 -5.107558,1.12355 -6.306588,1.194282 -6.109356,1.146572 -6.109356,1.477872 0,0.15558 1.739805,2.115836 3.866233,4.356088 3.614569,3.808048 4.257407,4.127844 4.124083,4.912932 -0.26068,1.535056 -2.004934,9.256892 -2.005458,9.858948 C 20.985278,47.733374 21.108942,48 21.260458,48 c 0.15148,0 2.842526,-1.507754 5.491176,-2.738842 z"/>
 <path style="opacity:0.2;fill:#ffffff" d="M 32 4 A 28 28 0 0 0 4 32 A 28 28 0 0 0 4.0214844 32.40625 A 28 28 0 0 1 32 5 A 28 28 0 0 1 59.978516 32.578125 A 28 28 0 0 0 60 32 A 28 28 0 0 0 32 4 z"/>
</svg>
